!!!OTL: Well Sold the Cow
!!!ONM: 14.
**kern
*clefG2
!Modal -- Conklin/Pearce
*k[b-e-a-]
*B-:
*M6/8
*MM120
{8b-
=1
4.b-
4f
8g
=2
4.a-
4g
8f
=3
4.b-
4f
8g
=4
[4.a-
4a-]}
{8a
=5
4.b-
4f
8f
=6
(4f
8e-)
4d
8d
=7
4.e-
4f
8c
=8
[4.d
4d]}
{8b-
=9
4b-
8b-
4f
8g
=10
4.a-
4b-
8b-
=11
4b-
8b-
4f
8g
=12
[4.a-
4a-]}
{8b-
=13
4b-
8b-
4f
8f
=14
(4f
8e-)
4d
8d
=15
4.e-
4f
8c
=16
(4.d
4.c)}
=17||
{4B-
8c
4d
8e-
=18
4.f
4.b-
=19
4f
8g
4e-
8c
=20
2.d}
=21
{4B-
8c
4d
8e-
=22
4.f
4.b-
=23
4d
8e-
4c
8A
=24
[4.B-
4B-]}
==
*-
!!!CNT: Folksongs of Maritime Canada
!!!MRD: 1928///-1932///
!!!OCL: Helen Creighton
!!!YOR: Songs and Ballads from Nova Scotia
!!!PPR: J.M. Dent & Sons, Limited
!!!PPP: Toronto, Canada
!!!PDT: 1932///
!!!reprint: Dover Publications, 1992: ISBN 0-486-21703-5
!!!ENC1: Craig Stuart Sapp (music and bibliographic data)                       
!!!ENC2: Marcus Pearce (phrase markings and key designations)                   
!!!ENC3: Darrell Conklin (phrase markings and key designations)   
!!!END: 2002/04/10/
!!!EEV: 2004/06/05
!!!MPN: Mr. Ben Henneberry
!!!PPG: 29
!!!EFL: 14/152
!!!ARE: Canada; Nova Scotia
!!!verses: 12
!!!VTS: 2097088585
